assets/icons/warp_light.svg

<svg version="1.1" viewBox="0 0 16 16" xml:space="preserve" xmlns="http://www.w3.org/2000/svg"><g fill="#546e7a"><path d="m8.4432 2h5.0635c0.855 0 1.4933 0.716 1.4933 1.6v6.8c0 0.884-0.71814 1.6-1.5731 1.6h-7.2032z"/><path d="m7 4h-4.4674c-0.84668 0-1.5326 0.715-1.5326 1.599l-1.74e-5 6.802c-2.26e-6 0.883 0.71681 1.599 1.5635 1.599h5.2268l0.20967-1h-3z" stroke-width=".99922"/></g></svg>

<svg xmlns="http://www.w3.org/2000/svg" xml:space="preserve" viewBox="0 0 16 16"><g fill="#546e7a"><path d="M8.443 2h5.064C14.362 2 15 2.716 15 3.6v6.8c0 .884-.718 1.6-1.573 1.6H6.224z"/><path d="M7 4H2.533C1.686 4 1 4.715 1 5.599v6.802C1 13.284 1.717 14 2.563 14H7.79L8 13H5z"/></g></svg>
